img/header__wish.svg

<svg width="30" height="30" viewBox="0 0 30 30" fill="none" xmlns="http://www.w3.org/2000/svg">
<g clip-path="url(#clip0)">
<path d="M27.4386 3.99962C24.0288 0.58997 18.4809 0.58997 15.0711 3.99962L14.9999 4.07078L14.9288 3.99962C11.5191 0.58997 5.97116 0.59003 2.56139 3.99968C0.909632 5.65138 0 7.84746 0 10.1834C0 12.5193 0.909632 14.7154 2.56139 16.3671L14.5807 28.3864C14.8095 28.6152 15.1905 28.6151 15.4193 28.3864L20.3671 23.4387C20.9079 22.8979 20.0694 22.0594 19.5285 22.6001L15 27.1286L3.39993 15.5285C0.452592 12.5812 0.452592 7.7855 3.39993 4.83816C6.34732 1.89083 11.143 1.89083 14.0903 4.83816L14.5807 5.32858C14.8093 5.5571 15.1906 5.5571 15.4193 5.32858L15.9097 4.83816C18.8571 1.89083 23.6527 1.89088 26.6001 4.83822C28.0278 6.26596 28.8141 8.16421 28.8141 10.1834C28.8141 12.2025 28.0278 14.1007 26.6 15.5285L22.9863 19.1422C22.4454 19.683 23.284 20.5216 23.8248 19.9808L27.4386 16.3671C29.0903 14.7153 30 12.5192 30 10.1833C30 7.84746 29.0903 5.65138 27.4386 3.99962Z" fill="black"/>
<path d="M22.3074 21.071C22.2103 20.8379 21.9683 20.6879 21.7162 20.7067C21.4687 20.7251 21.255 20.9012 21.1888 21.1401C21.0466 21.6529 21.6307 22.0819 22.0779 21.798C22.3184 21.6453 22.4153 21.3339 22.3074 21.071Z" fill="black"/>
</g>
<defs>
<clipPath id="clip0">
<rect width="30" height="30" fill="white"/>
</clipPath>
</defs>
</svg>

<svg width="30" height="30" fill="none" xmlns="http://www.w3.org/2000/svg"><g clip-path="url(#clip0)" fill="#000"><path d="M27.439 4C24.029.59 18.48.59 15.07 4l-.07.07-.071-.07C11.519.59 5.97.59 2.56 4A8.688 8.688 0 000 10.183c0 2.336.91 4.532 2.561 6.184l12.02 12.02c.229.228.61.228.838 0l4.948-4.948c.54-.541-.298-1.38-.838-.839L15 27.13 3.4 15.53C.453 12.58.453 7.784 3.4 4.838c2.947-2.948 7.743-2.948 10.69 0l.49.49c.23.228.61.228.84 0l.49-.49c2.947-2.948 7.743-2.948 10.69 0a7.51 7.51 0 012.214 5.344 7.51 7.51 0 01-2.214 5.345l-3.614 3.614c-.54.541.298 1.38.839.839l3.614-3.614A8.688 8.688 0 0030 10.183c0-2.336-.91-4.532-2.561-6.183z"/><path d="M22.307 21.071a.599.599 0 00-.59-.364.598.598 0 00-.528.433c-.142.513.442.942.889.658a.599.599 0 00.23-.727z"/></g><defs><clipPath id="clip0"><path fill="#fff" d="M0 0h30v30H0z"/></clipPath></defs></svg>
